actions/24/format-text-uppercase.svg

<?xml version="1.0" encoding="UTF-8" standalone="no"?>
<svg
   width="24"
   height="24"
   version="1.1"
   id="svg9"
   sodipodi:docname="format-text-uppercase.svg"
   inkscape:version="1.1.2 (0a00cf5339, 2022-02-04)"
   xmlns:inkscape="http://www.inkscape.org/namespaces/inkscape"
   xmlns:sodipodi="http://sodipodi.sourceforge.net/DTD/sodipodi-0.dtd"
   xmlns="http://www.w3.org/2000/svg"
   xmlns:svg="http://www.w3.org/2000/svg">
  <sodipodi:namedview
     id="namedview11"
     pagecolor="#000000"
     bordercolor="#666666"
     borderopacity="1.0"
     inkscape:pageshadow="2"
     inkscape:pageopacity="0"
     inkscape:pagecheckerboard="0"
     showgrid="false"
     inkscape:zoom="40.187236"
     inkscape:cx="12.0063"
     inkscape:cy="11.944091"
     inkscape:window-width="1596"
     inkscape:window-height="967"
     inkscape:window-x="0"
     inkscape:window-y="29"
     inkscape:window-maximized="1"
     inkscape:current-layer="g7" />
  <defs
     id="defs3">
    <style
       id="current-color-scheme"
       type="text/css">
   .ColorScheme-Text { color:#eeeeec; } .ColorScheme-Highlight { color:#367bf0; } .ColorScheme-NeutralText { color:#ffcc44; } .ColorScheme-PositiveText { color:#3db47e; } .ColorScheme-NegativeText { color:#dd4747; }
  </style>
  </defs>
  <g
     transform="translate(4,4)"
     id="g7">
    <path
       style="fill:currentColor"
       class="ColorScheme-Text"
       d="m 4,6 -3,8 h 1 l 0.7695,-2 h 3.461 L 7,14 H 8 L 5,6 Z m 0.7875308,2.2478322 v 0 L 5.6294587,10.437583 5.2620567,11 v 0 H 3.6783501 v 0 L 3.3582306,10.469602 4.252309,8.1442139 Z M 9,6 v 8 h 3.5 C 15,14 15,11.5 15,11.5 15,11.5 15,9.9176 13.561,9.2422 13.561,9.2422 14,8.775 14,8 14,8 14,6 12,6 Z m 1,1 h 2 c 1,0 1,1 1,1 0,0 0,1 -1,1 h -2 z m 0,3 h 2.5 c 1.5,0 1.5,1.5 1.5,1.5 0,0 0,1.5 -1.5,1.5 H 10 Z m 1.039732,-7.4476784 v 0 L 9.7170161,4.1395807 v 0 L 9.674564,4.5983552 9.8726373,5 v 0 h 3.3079607 v 0 l 0.243537,-0.6910381 -1.43613,-1.7233562 z"
       id="path5"
       sodipodi:nodetypes="cccccccccccccccccccccscccsccscscccscscccccccccccccc" />
  </g>
</svg>

<svg xmlns="http://www.w3.org/2000/svg" width="24" height="24" version="1.1">
 <defs>
  <style id="current-color-scheme" type="text/css">
   .ColorScheme-Text { color:#eeeeec; } .ColorScheme-Highlight { color:#367bf0; } .ColorScheme-NeutralText { color:#ffcc44; } .ColorScheme-PositiveText { color:#3db47e; } .ColorScheme-NegativeText { color:#dd4747; }
  </style>
 </defs>
 <g transform="translate(4,4)">
  <path style="fill:currentColor" class="ColorScheme-Text" d="M 4,6 1,14 H 2 L 2.7695,12 H 6.2305 L 7,14 H 8 L 5,6 Z M 4.5,7.5 5.8457,11 H 3.1543 Z M 9,6 V 14 H 12.5 C 15,14 15,11.5 15,11.5 15,11.5 15,9.9176 13.561,9.2422 13.561,9.2422 14,8.775 14,8 14,8 14,6 12,6 Z M 10,7 H 12 C 13,7 13,8 13,8 13,8 13,9 12,9 H 10 Z M 10,10 H 12.5 C 14,10 14,11.5 14,11.5 14,11.5 14,13 12.5,13 H 10 Z M 11.5,2 9,5 H 14 Z"/>
 </g>
</svg>
